X:82
T:Quadrill from Manchester. CJF.082
T:La Virginie. CJF.082
T:Manchester Quadrille. CJF.082
R:Quadrille
S:C.J.Fox MS, 1829/33, Beverley,E.Yorks.
N:On title line is “From J.J’s Book”. – PJH
B:Kidson Coll.Mitchell Lib.M1805
O:England
A:East Yorkshire
Z:vmp.P J Headford 2000 & 2008
M:2/4
L:1/8
Q:1/4=100
K:D
c|”p”fd/f/ b/a/g/f/|ee/d/ ef|ag ee|gf d>e|!
” for”fd/f/ b/a/g/f/|ee/d/ ef|agec|hd3:|!
|:a|aea c’/b/|a/g/f/e/ ef/g/|a/g/b/a/ c’/b/d’/c’/|\
c’2b>a|!
aea c’/b/|a/g/f/e/ ea/g/|\
f/d’/b/a/ g/a/b/g/|a3:|!
|:f|”p”gfed|edeg|fede|f2df|!
gfed|edeg|fage|d3:|

